X:1
T:The Battle of the Diamond 21 Sept. 1795
M:3/4
L:1/4
K:C
E/2-D/2| C B, C| c B c| A G A| G E D| C B, C| c- B c| A3| G2A/2-B/2|\
 c c c| c G E| F G A| G2 E/2F/2| G E C| G- E C| D3| C2||
